dist/img/books.svg

<svg width="140" height="92" viewBox="0 0 140 92" fill="none" xmlns="http://www.w3.org/2000/svg">
<path d="M135.838 71.3749V82.0343C135.838 84.6548 133.71 86.7827 131.09 86.7827H18.8708V66.6265H131.09C133.72 66.6265 135.838 68.7446 135.838 71.3749Z" fill="#F8D061"/>
<path d="M76.1576 71.3749V82.0343C76.1576 84.6548 74.0297 86.7827 71.4092 86.7827H18.8708V66.6265H71.4092C74.0297 66.6265 76.1576 68.7446 76.1576 71.3749Z" fill="white"/>
<path d="M23.4814 71.168H71.5472" stroke="#FCF0E4" stroke-miterlimit="10" stroke-linecap="round" stroke-linejoin="round"/>
<path d="M23.4814 75.1579H71.5472" stroke="#FCF0E4" stroke-miterlimit="10" stroke-linecap="round" stroke-linejoin="round"/>
<path d="M3 10.7485V24.7376C3 27.3582 5.12793 29.4861 7.74844 29.4861H115.347V6H7.7583C5.12794 6 3 8.12794 3 10.7485Z" fill="#F8D061"/>
<path d="M60.3263 10.7485V24.7376C60.3263 27.3582 62.4542 29.4861 65.0748 29.4861H115.347V6H65.0748C62.4542 6 60.3263 8.12794 60.3263 10.7485Z" fill="#FCF0E4"/>
<path d="M65.9613 11.3986H109.722" stroke="white" stroke-miterlimit="10" stroke-linecap="round" stroke-linejoin="round"/>
<path d="M65.9613 15.3787H109.722" stroke="white" stroke-miterlimit="10" stroke-linecap="round" stroke-linejoin="round"/>
<path d="M65.9613 19.3587H109.722" stroke="white" stroke-miterlimit="10" stroke-linecap="round" stroke-linejoin="round"/>
<path d="M53.2035 10.9455V25.112" stroke="#1D1141" stroke-miterlimit="10" stroke-linecap="round" stroke-linejoin="round"/>
<path d="M47.5193 10.9455V25.112" stroke="#1D1141" stroke-miterlimit="10" stroke-linecap="round" stroke-linejoin="round"/>
<path d="M132.715 61.878C132.715 64.4985 130.588 66.6265 127.967 66.6265H9.40356V57.1295H127.967C130.588 57.1295 132.715 59.2575 132.715 61.878Z" fill="#2C3EC5"/>
<path d="M69.7936 61.878C69.7936 64.4985 67.6657 66.6265 65.0451 66.6265H9.40356V57.1295H65.0451C67.6657 57.1295 69.7936 59.2575 69.7936 61.878Z" fill="#FCF0E4"/>
<path d="M136.971 34.2346V52.3811C136.971 55.0016 134.843 57.1296 132.223 57.1296H13.6594V29.4861H132.223C134.843 29.4861 136.971 31.614 136.971 34.2346Z" fill="#F36B80"/>
<path d="M74.0495 34.2346V52.3811C74.0495 55.0016 71.9215 57.1296 69.301 57.1296H13.6594V29.4861H69.301C71.9215 29.4861 74.0495 31.614 74.0495 34.2346Z" fill="white"/>
<path d="M18.871 34.9734H66.9367" stroke="#FCF0E4" stroke-miterlimit="10" stroke-linecap="round" stroke-linejoin="round"/>
<path d="M18.871 38.9633H66.9367" stroke="#FCF0E4" stroke-miterlimit="10" stroke-linecap="round" stroke-linejoin="round"/>
<path d="M18.871 42.9433H66.9367" stroke="#FCF0E4" stroke-miterlimit="10" stroke-linecap="round" stroke-linejoin="round"/>
</svg>

<svg width="140" height="92" fill="none" xmlns="http://www.w3.org/2000/svg"><path d="M135.838 71.375v10.66a4.75 4.75 0 01-4.748 4.748H18.87V66.626h112.22a4.738 4.738 0 014.748 4.749z" fill="#F8D061"/><path d="M76.158 71.375v10.66a4.75 4.75 0 01-4.749 4.748H18.871V66.626h52.538a4.745 4.745 0 014.749 4.749z" fill="#fff"/><path d="M23.481 71.168h48.066m-48.066 3.99h48.066" stroke="#FCF0E4" stroke-miterlimit="10" stroke-linecap="round" stroke-linejoin="round"/><path d="M3 10.748v13.99a4.751 4.751 0 004.748 4.748h107.599V6H7.758A4.753 4.753 0 003 10.748z" fill="#F8D061"/><path d="M60.326 10.748v13.99a4.751 4.751 0 004.749 4.748h50.272V6H65.075a4.751 4.751 0 00-4.749 4.748z" fill="#FCF0E4"/><path d="M65.961 11.399h43.761m-43.761 3.98h43.761m-43.761 3.98h43.761" stroke="#fff" stroke-miterlimit="10" stroke-linecap="round" stroke-linejoin="round"/><path d="M53.203 10.945v14.167M47.52 10.945v14.167" stroke="#1D1141" stroke-miterlimit="10" stroke-linecap="round" stroke-linejoin="round"/><path d="M132.715 61.878a4.75 4.75 0 01-4.748 4.748H9.404V57.13h118.563a4.75 4.75 0 014.748 4.749z" fill="#2C3EC5"/><path d="M69.794 61.878a4.751 4.751 0 01-4.749 4.748H9.404V57.13h55.641a4.751 4.751 0 014.749 4.749z" fill="#FCF0E4"/><path d="M136.971 34.235V52.38a4.751 4.751 0 01-4.748 4.749H13.659V29.486h118.564a4.75 4.75 0 014.748 4.749z" fill="#F36B80"/><path d="M74.05 34.235V52.38a4.751 4.751 0 01-4.75 4.75H13.659V29.486h55.642a4.751 4.751 0 014.748 4.749z" fill="#fff"/><path d="M18.871 34.973h48.066m-48.066 3.99h48.066m-48.066 3.98h48.066" stroke="#FCF0E4" stroke-miterlimit="10" stroke-linecap="round" stroke-linejoin="round"/></svg>
